X:1
T:Title
%%score 1 ( 2 3 )
L:1/8
Q:1/4=90
M:4/4
K:C
V:1 treble nm="Strings 1, Soprano"
V:2 bass nm="Strings 1, Bass"
V:3 bass 
V:1
 z4 z2 [EG][EG] | [EG]2 [CE][DF] [EG]2 [Ge][Ge] | [Ac]2 [FA][Fc] [EG]2 [FA][FA] | %3
w: 1.~Shall~ I~|wear~ that~ bright~ crown~ God~ has~|of fered~ to~ me,~ When~ my~|
 [EG]2 [CE][CE] [B,G]2 [B,F][DF] | [CE]6 [EG][EG] | [EG]2 [CE][DF] [EG]2 [Ge][Ge] | %6
w: life~ shall~ have~ come~ to~ a~|close?~ Oh,~ how~|hap py~ I'll~ be~ when~ my~|
 [Ac]2 [FA][Fc] [EG]2 [FA][FA] | [EG]2 [Fd][Fd] [Ec]2 [Ge][Ge] | [Ec]6 [Ec][Fd] | %9
w: spir it~ is~ free,~ O ver~|there~ in~ such~ bliss ful~ re|pose.~ * *|
 [Ge]2 [Ge][Fd] [Ec]2 [CE][CA] | [CG]2 D[^CE] [DF]2 [Fd][Ge] | [Fd]2 [B,D][CE] [DF]2 [FB][FA] | %12
w: |||
 [EG]4 [CE]2 [Ec][Fd] | [Ge]2 [Ge][Fd] [Ec]2 [CE][CA] | [CG]2 D[^CE] [DF]2 [^FA][FA] | %15
w: |||
 G2 [Fd][Fd] [Ec]2 [Ge][Ge] | [Ec]6 z2 |] %17
w: ||
V:2
 z4 z2 [C,C][C,C] | [C,C]2 [C,G,][C,G,] [C,C]2 [C,C][C,C] | [F,C]2 [F,C][A,C] C2 [F,C][F,C] | %3
 [G,C]2 G,G, [G,,G,]2 [G,,G,][B,,G,] | [C,G,]6 [C,C][C,C] | [C,C]2 [C,G,][C,G,] [C,C]2 [C,C][C,C] | %6
 [F,C]2 [F,C][A,C] C2 [F,C][F,C] | [G,C]2 [G,B,][G,B,] G,2 [G,,G,B,][G,,G,B,] | %8
 [C,G,C]6 [C,G,][C,G,] | [C,C]2 [C,C][C,G,] [C,G,]2 [C,G,][D,^F,] | %10
 [E,G,]2 [F,A,][E,A,] [D,A,]2 [D,B,][D,B,] | [G,B,]2 G,G, G,2 [G,,G,][G,,B,] | C4 z4 | %13
 [C,C]2 [C,C][C,G,] [C,G,]2 [C,G,][D,^F,] | [E,G,]2 [F,A,][E,A,] [D,A,]2 [D,C][D,C] | %15
 [E,C]2 [F,A,][F,A,] G,2 [G,,G,B,][G,,G,B,] | [C,G,C]6 z2 |] %17
V:3
 x8 | x8 | x8 | x8 | x8 | x8 | x8 | x8 | x8 | x8 | x8 | x8 | C,4- [C,G,]2 [C,G,][C,G,] | x8 | x8 | %15
 x8 | x8 |] %17

